X:1
T:Title
%%score { ( 1 3 ) | 2 }
L:1/8
M:6/4
K:Bb
V:1 treble nm="Grand Piano"
V:3 treble 
V:2 bass 
V:1
 z6 z4[Q:1/4=126] [DF]2 | [DF]2 [DG]2 [DA]2 [DB]2 [Ec]2 [Fd]2 | c6 G4 c2 | B2 A2 G2 F2 A2 e2 | %4
[M:5/4] d2- d2- d6 |[M:1/4] [DF]2 |[M:6/4] [DF]2 [DG]2 [DA]2 [DB]2 [Ec]2 [Fd]2 | %7
 [Gc]6 [Ge]4 [Ge]2 | d3 c B2 A2 B2 c2 |[M:5/4] [DB]2- [DB]2- [DB]6 |[M:1/4] [DB]2 | %11
[M:6/4] c3 d c2 A2 G2 F2 | B12 | [Fc]3 [Fd] [Fc]2 [G=e]2 [Gd]2 [Bc]2 | f4- [Bf-]2 [Af]6 | %15
[M:1/4] [Af]2 |[M:6/4] f3 e d2 [Fd]2 [Fc]2 [_AB]2 |[M:7/4] [GB]6 [Ge]6 [Ge]2 | %18
[M:6/4] d3 c B2 A2 B2 c2 |[M:5/4] [DB]2- [DB]2- [DB]6 |] %20
V:2
 z6 z4 [B,,B,]2 | [B,,B,]2 [B,,B,]2 [B,,B,]2 [B,,F,]2 [B,,F,]2 [B,,B,]2 | %2
 [E,G,E]6 [E,CE]4 [E,G,E]2 | [F,E]2 [F,CE]2 [F,B,E]2 [F,A,E]2 [F,CE]2[K:treble] [F,A,G]2 | %4
[M:5/4] [B,F]2- [B,F]2- [B,F]6 |[M:1/4][K:bass] [B,,B,]2 | %6
[M:6/4] [B,,B,]2 [B,,B,]2 [B,,B,]2 [B,,F,]2 [B,,F,]2 [B,,B,]2 | [E,B,]6 [E,B,]4 [E,B,]2 | %8
 [F,B,F]3 [F,A,E] [F,B,D]2 [F,CE]2 [F,B,D]2 [F,A,E]2 |[M:5/4] [B,,B,]2- [B,,B,]2- [B,,B,]6 | %10
[M:1/4] [B,,B,]2 |[M:6/4] [F,A,E]3 [F,A,E] [F,A,E]2 [F,CE]2 [F,B,E]2 [F,A,E]2 | %12
 [B,,B,]4 [B,,G,]2 [B,,F,]4 [D,B,]2 | [C,A,]3 [C,A,] [C,A,]2 [C,C]2 [D,C]2 [=E,C]2 | %14
 [F,C]4 [F,D]2 [F,E]6 |[M:1/4] [F,E]2 | %16
[M:6/4][K:treble] [B,DB]3 [B,CF] [B,F]2[K:bass] [B,,B,]2 [C,A,]2 [D,B,]2 | %17
[M:7/4] [E,E]6 [E,B,]6 [E,B,]2 |[M:6/4] [F,B,F]3 [F,A,E] [F,B,D]2 [F,CE]2 [F,B,D]2 [F,A,E]2 | %19
[M:5/4] [B,,B,]2- [B,,B,]2- [B,,B,]6 |] %20
V:3
 x12 | x12 | x12 | x12 |[M:5/4] x10 |[M:1/4] x2 |[M:6/4] x12 | x12 | x12 |[M:5/4] x10 |[M:1/4] x2 | %11
[M:6/4] x12 | D4 E2 D4 [FB]2 | x12 | .A6 z6 |[M:1/4] x2 |[M:6/4] x12 |[M:7/4] x14 |[M:6/4] x12 | %19
[M:5/4] x10 |] %20

